www/assets/icons/compress.svg

<svg width="24" height="24" viewBox="0 0 24 24" xmlns="http://www.w3.org/2000/svg" fill='currentColor'><path d="M8 19.5H11V22.5H13V19.5H16L12 15.5L8 19.5ZM16 4.5H13V1.5H11V4.5H8L12 8.5L16 4.5ZM4 9.5V11.5H20V9.5H4Z"/><path d="M4 12.5H20V14.5H4V12.5Z"/></svg>

<svg xmlns="http://www.w3.org/2000/svg" width="24" height="24" viewBox="0 0 24 24" fill='currentColor'><path d="M8 19.5h3v3h2v-3h3l-4-4zm8-15h-3v-3h-2v3H8l4 4zm-12 5v2h16v-2zm0 3h16v2H4z"/></svg>
